svgs/solid/pause.svg

<svg xmlns="http://www.w3.org/2000/svg" viewBox="0 0 320 512"><!-- Font Awesome Pro 6.0.0-alpha2 by @fontawesome - https://fontawesome.com License - https://fontawesome.com/license (Commercial License) --><path d="M272 64H240C213.49 64 192 85.49 192 112V400C192 426.51 213.49 448 240 448H272C298.51 448 320 426.51 320 400V112C320 85.49 298.51 64 272 64ZM80 64H48C21.49 64 0 85.49 0 112V400C0 426.51 21.49 448 48 448H80C106.51 448 128 426.51 128 400V112C128 85.49 106.51 64 80 64Z"/></svg>

<svg xmlns="http://www.w3.org/2000/svg" viewBox="0 0 320 512"><!--! Font Awesome Pro 6.3.0 by @fontawesome - https://fontawesome.com License - https://fontawesome.com/license (Commercial License) Copyright 2023 Fonticons, Inc. --><path d="M48 64C21.5 64 0 85.5 0 112V400c0 26.5 21.5 48 48 48H80c26.5 0 48-21.5 48-48V112c0-26.5-21.5-48-48-48H48zm192 0c-26.5 0-48 21.5-48 48V400c0 26.5 21.5 48 48 48h32c26.5 0 48-21.5 48-48V112c0-26.5-21.5-48-48-48H240z"/></svg>
